X:1
T:Title
%%score { 1 | 2 }
L:1/8
Q:1/4=100
M:4/4
K:Bb
V:1 treble nm="Grand Piano"
V:2 bass 
V:1
 [DF]>[DF] [DF]>[EG] [DF]>[B,D] [DB]>[FA] | G2 B2 F4 | E>E E>F E>C A>G | [EG]2 [DF]2 [DF]4 | %4
w: Charles~H.~Gabriel * * * * * * *||||
 [DF]>[DF] [DF]>[EG] [DF]>[B,D] [DB]>[FA] | [EG]2 [EG]2 [=Ec]4 | B2 A2 G2 A2 | [DB]4 [DB]2 z2 | %8
w: ||||
 [Fd]>[Fd] [Fd]>[Ge] [Fd]>[Fc] [FB]>[FA] | G2 c2 c4 | c>c c>d c>B A>G | [EG]2 [DF]2 [B,D]4 | %12
w: ||||
 [Fd]>[Fd] [Fd]>[Ge] [Fd]>[Fc] [FB]>[FA] | [EG]2 [EG]2 [Ge]4 | d2 .F2 c2 .F2 | [DB]4 [DB]2 z2 |] %16
w: ||||
V:2
 [B,,B,]>[B,,B,] [B,,B,]>[B,,B,] [B,,B,]>[B,,F,] [B,,F,]>[D,B,] | [E,B,E]2 [G,B,E]2 [B,D]4 | %2
 [F,A,C]>[F,A,C] [F,A,C]>[F,A,D] [F,A,C]>[F,A,] [F,CF]>[G,A,E] | [B,,B,]2 [B,,B,]2 [B,,B,]4 | %4
 [B,,B,]>[B,,B,] [B,,B,]>[B,,B,] [B,,B,]>[B,,F,] [B,,F,]>[D,B,] | [E,B,]2 [E,B,]2 [C,B,]4 | %6
 [F,CE]2 [F,CE]2 [F,CE]2 [F,E]2 | [B,,F,]4 [B,,F,]2 z2 | %8
 [B,,B,]>[B,,B,] [B,,B,]>[B,,B,] [B,,B,]>[C,A,] [D,B,]>[D,B,] | [E,B,E]2 [E,G,E]2 [E,G,E]4 | %10
 [F,A,E]>[F,A,E] [F,A,E]>[F,A,F] [F,A,E]>[F,B,E] [F,CE]>[F,A,E] | [B,,B,]2 [B,,B,]2 [B,,F,]4 | %12
 [B,,B,]>[B,,B,] [B,,B,]>[B,,B,] [B,,B,]>[C,A,] [D,B,]>[D,B,] | [E,B,]2 [E,B,]2 [E,B,]4 | %14
 [F,B,F]2 .[F,B,D]2 [F,A,E]2 .[F,A,E]2 | [B,,F,]4 [B,,F,]2 z2 |] %16

